qucs/bitmaps/svg/smith.svg

<?xml version="1.0" encoding="UTF-8" standalone="no"?>
<!-- Created with Inkscape (http://www.inkscape.org/) -->

<svg
   xmlns:dc="http://purl.org/dc/elements/1.1/"
   xmlns:cc="http://creativecommons.org/ns#"
   xmlns:rdf="http://www.w3.org/1999/02/22-rdf-syntax-ns#"
   xmlns:svg="http://www.w3.org/2000/svg"
   xmlns="http://www.w3.org/2000/svg"
   xmlns:sodipodi="http://sodipodi.sourceforge.net/DTD/sodipodi-0.dtd"
   xmlns:inkscape="http://www.inkscape.org/namespaces/inkscape"
   height="128"
   width="128"
   version="1.1"
   id="svg487"
   sodipodi:docname="smith.svg"
   inkscape:version="0.92.3 (2405546, 2018-03-11)">
  <metadata
     id="metadata491">
    <rdf:RDF>
      <cc:Work
         rdf:about="">
        <dc:format>image/svg+xml</dc:format>
        <dc:type
           rdf:resource="http://purl.org/dc/dcmitype/StillImage" />
        <dc:title />
      </cc:Work>
    </rdf:RDF>
  </metadata>
  <sodipodi:namedview
     pagecolor="#ffffff"
     bordercolor="#666666"
     borderopacity="1"
     objecttolerance="10"
     gridtolerance="10"
     guidetolerance="10"
     inkscape:pageopacity="0"
     inkscape:pageshadow="2"
     inkscape:window-width="1920"
     inkscape:window-height="1050"
     id="namedview489"
     showgrid="true"
     inkscape:zoom="6.2421875"
     inkscape:cx="30.239546"
     inkscape:cy="66.605138"
     inkscape:window-x="1920"
     inkscape:window-y="0"
     inkscape:window-maximized="1"
     inkscape:current-layer="svg487">
    <inkscape:grid
       type="xygrid"
       id="grid1504" />
  </sodipodi:namedview>
  <defs
     id="defs24">
    <marker
       inkscape:stockid="Arrow1Lend"
       orient="auto"
       refY="0.0"
       refX="0.0"
       id="Arrow1Lend"
       style="overflow:visible;"
       inkscape:isstock="true">
      <path
         id="path855"
         d="M 0.0,0.0 L 5.0,-5.0 L -12.5,0.0 L 5.0,5.0 L 0.0,0.0 z "
         style="fill-rule:evenodd;stroke:#000000;stroke-width:1pt;stroke-opacity:1;fill:#000000;fill-opacity:1"
         transform="scale(0.8) rotate(180) translate(12.5,0)" />
    </marker>
    <linearGradient
       id="linearGradient7843"
       gradientTransform="matrix(.121457 0 0 .1756605 195.18891 503.66043)"
       gradientUnits="userSpaceOnUse"
       x1="-333.0289"
       x2="-333.0289"
       y1="-1473.6504"
       y2="-776.61371">
      <stop
         offset="0"
         stop-color="#fff"
         id="stop2" />
      <stop
         offset=".49140647"
         stop-color="#fff"
         id="stop4" />
      <stop
         offset="1"
         stop-color="#dcdcdc"
         id="stop6" />
    </linearGradient>
    <linearGradient
       id="linearGradient7912"
       gradientTransform="matrix(.121457 0 0 .1756605 75.745932 148.34634)"
       gradientUnits="userSpaceOnUse"
       x1="399.77466"
       x2="399.77466"
       y1="727.07941"
       y2="480.60214">
      <stop
         offset="0"
         stop-color="#cbcbcd"
         id="stop9" />
      <stop
         offset=".5"
         stop-color="#e0e0e2"
         id="stop11" />
      <stop
         offset="1"
         stop-color="#f2f2f2"
         id="stop13" />
    </linearGradient>
    <linearGradient
       id="linearGradient12912"
       gradientUnits="userSpaceOnUse"
       x1="1055.3002"
       x2="1055.3002"
       y1="-468.66934"
       y2="-481.76657">
      <stop
         offset="0"
         stop-color="#6f6f6f"
         id="stop16" />
      <stop
         offset="1"
         stop-color="#fff"
         id="stop18" />
    </linearGradient>
    <filter
       id="filter4400">
      <feGaussianBlur
         stdDeviation="1.177891"
         id="feGaussianBlur21" />
    </filter>
  </defs>
  <rect
     style="fill:#ffffff;fill-opacity:1;stroke:#ffffff;stroke-width:1.0;stroke-linecap:square;stroke-linejoin:round;stroke-miterlimit:4;stroke-dasharray:none;stroke-dashoffset:0;stroke-opacity:1;paint-order:stroke fill markers"
     id="rect915"
     width="127.0"
     height="127.0"
     x="0.50"
     y="0.50" />
  <path
     style="fill:none;fill-opacity:1;stroke:#000000;stroke-width:3;stroke-linecap:square;stroke-linejoin:round;stroke-miterlimit:4;stroke-dasharray:none;stroke-dashoffset:0;stroke-opacity:1;paint-order:stroke fill markers"
     id="path841"
     sodipodi:type="arc"
     sodipodi:cx="65"
     sodipodi:cy="-62.99567"
     sodipodi:rx="60"
     sodipodi:ry="60"
     sodipodi:start="4.6695935"
     sodipodi:end="4.6674817"
     sodipodi:open="true"
     d="M 62.433055,-122.94074 A 60,60 0 0 1 124.9437,-65.594263 60,60 0 0 1 67.63024,-3.0533494 60,60 0 0 1 5.0590761,-60.333784 60,60 0 0 1 62.306469,-122.93518"
     transform="scale(1,-1)" />
  <path
     style="fill:none;stroke:#000000;stroke-width:3;stroke-linecap:butt;stroke-linejoin:miter;stroke-miterlimit:4;stroke-dasharray:none;stroke-opacity:1"
     d="M 5,62.995669 H 125"
     id="path843"
     inkscape:connector-curvature="0" />
  <path
     style="fill:none;stroke:#000000;stroke-width:3;stroke-linecap:butt;stroke-linejoin:miter;stroke-miterlimit:4;stroke-dasharray:none;stroke-opacity:1"
     d="m 125,62.995669 c 0,0 -25.412489,-9.539675 -42.048811,-28.377471 C 68.271248,17.995669 65,2.9956694 65,2.9956694 v 0"
     id="path906"
     inkscape:connector-curvature="0"
     sodipodi:nodetypes="cscc" />
  <path
     style="fill:none;stroke:#000000;stroke-width:3;stroke-linecap:butt;stroke-linejoin:miter;stroke-miterlimit:4;stroke-dasharray:none;stroke-opacity:1"
     d="m 125,62.995669 c 0,0 -46.891577,-0.699225 -75.945789,-20.349613 C 20,22.995669 20,22.995669 20,22.995669 v 0 0 0"
     id="path908"
     inkscape:connector-curvature="0" />
  <path
     style="fill:none;fill-opacity:1;stroke:#000000;stroke-width:3;stroke-linecap:square;stroke-linejoin:round;stroke-miterlimit:4;stroke-dasharray:none;stroke-dashoffset:0;stroke-opacity:1;paint-order:stroke fill markers"
     id="path910"
     sodipodi:type="arc"
     sodipodi:cx="95"
     sodipodi:cy="-60.49567"
     sodipodi:rx="30"
     sodipodi:ry="32.5"
     sodipodi:start="3.2082798"
     sodipodi:end="3.1993008"
     d="M 65.066683,-62.661397 A 30,32.5 0 0 1 96.931934,-92.92821 30,32.5 0 0 1 124.94199,-58.47555 30,32.5 0 0 1 93.20249,-28.054061 30,32.5 0 0 1 65.04994,-62.370144"
     transform="scale(1,-1)"
     sodipodi:open="true" />
  <path
     style="fill:none;fill-opacity:1;stroke:#000000;stroke-width:3;stroke-linecap:square;stroke-linejoin:round;stroke-miterlimit:4;stroke-dasharray:none;stroke-dashoffset:0;stroke-opacity:1;paint-order:stroke fill markers"
     id="path912"
     sodipodi:type="arc"
     sodipodi:cx="80"
     sodipodi:cy="-60.49567"
     sodipodi:rx="45"
     sodipodi:ry="42.5"
     sodipodi:start="3.2043849"
     sodipodi:end="3.1992932"
     sodipodi:open="true"
     d="M 35.088685,-63.162587 A 45,42.5 0 0 1 82.766624,-102.91527 45,42.5 0 0 1 124.91836,-57.936747 45,42.5 0 0 1 77.347732,-18.069554 45,42.5 0 0 1 35.07489,-62.946583"
     transform="scale(1,-1)" />
  <path
     style="fill:none;stroke:#000000;stroke-width:3;stroke-linecap:butt;stroke-linejoin:miter;stroke-miterlimit:4;stroke-dasharray:none;stroke-opacity:1"
     d="M 125,63 C 125,63 78.108423,63.699225 49.054211,83.349613 20,103 20,103 20,103 v 0 0 0"
     id="path908-6"
     inkscape:connector-curvature="0" />
  <path
     style="fill:none;stroke:#000000;stroke-width:3;stroke-linecap:butt;stroke-linejoin:miter;stroke-miterlimit:4;stroke-dasharray:none;stroke-opacity:1"
     d="M 125,63 C 125,63 99.58751,72.539675 82.951189,91.377471 68.271248,108 65,123 65,123 v 0"
     id="path906-7"
     inkscape:connector-curvature="0"
     sodipodi:nodetypes="cscc" />
</svg>

<svg xmlns="http://www.w3.org/2000/svg" width="128" height="128"><path d="M.5.5h127v127H.5z" style="fill:#fff;fill-opacity:1;stroke:#fff;stroke-width:1;stroke-linecap:square;stroke-linejoin:round;stroke-miterlimit:4;stroke-dasharray:none;stroke-dashoffset:0;stroke-opacity:1;paint-order:stroke fill markers"/><path d="M62.433-122.94a60 60 0 0 1 62.51 57.346A60 60 0 0 1 67.63-3.054a60 60 0 0 1-62.57-57.28 60 60 0 0 1 57.246-62.601" style="fill:none;fill-opacity:1;stroke:#000;stroke-width:3;stroke-linecap:square;stroke-linejoin:round;stroke-miterlimit:4;stroke-dasharray:none;stroke-dashoffset:0;stroke-opacity:1;paint-order:stroke fill markers" transform="scale(1 -1)"/><path d="M5 62.996h120M125 62.996s-25.412-9.54-42.049-28.378C68.271 17.996 65 2.996 65 2.996" style="fill:none;stroke:#000;stroke-width:3;stroke-linecap:butt;stroke-linejoin:miter;stroke-miterlimit:4;stroke-dasharray:none;stroke-opacity:1"/><path d="M125 62.996s-46.892-.7-75.946-20.35L20 22.996" style="fill:none;stroke:#000;stroke-width:3;stroke-linecap:butt;stroke-linejoin:miter;stroke-miterlimit:4;stroke-dasharray:none;stroke-opacity:1"/><path d="M65.067-62.661a30 32.5 0 0 1 31.865-30.267 30 32.5 0 0 1 28.01 34.452 30 32.5 0 0 1-31.74 30.422A30 32.5 0 0 1 65.05-62.37" style="fill:none;fill-opacity:1;stroke:#000;stroke-width:3;stroke-linecap:square;stroke-linejoin:round;stroke-miterlimit:4;stroke-dasharray:none;stroke-dashoffset:0;stroke-opacity:1;paint-order:stroke fill markers" transform="scale(1 -1)"/><path d="M35.089-63.163a45 42.5 0 0 1 47.678-39.752 45 42.5 0 0 1 42.151 44.978 45 42.5 0 0 1-47.57 39.867 45 42.5 0 0 1-42.273-44.877" style="fill:none;fill-opacity:1;stroke:#000;stroke-width:3;stroke-linecap:square;stroke-linejoin:round;stroke-miterlimit:4;stroke-dasharray:none;stroke-dashoffset:0;stroke-opacity:1;paint-order:stroke fill markers" transform="scale(1 -1)"/><path d="M125 63s-46.892.7-75.946 20.35L20 103" style="fill:none;stroke:#000;stroke-width:3;stroke-linecap:butt;stroke-linejoin:miter;stroke-miterlimit:4;stroke-dasharray:none;stroke-opacity:1"/><path d="M125 63s-25.412 9.54-42.049 28.377C68.271 108 65 123 65 123" style="fill:none;stroke:#000;stroke-width:3;stroke-linecap:butt;stroke-linejoin:miter;stroke-miterlimit:4;stroke-dasharray:none;stroke-opacity:1"/></svg>
